frontend/public/svg/interface/navigation-2.svg

<svg width="103" height="150" viewBox="0 0 103 150" fill="none" xmlns="http://www.w3.org/2000/svg">
<g clip-path="url(#clip0)">
<path d="M101.064 135.696C99.9231 130.148 98.7443 124.411 97.1045 118.898C90.6385 97.1501 82.842 71.9443 72.1165 48.0083C69.4315 42.0154 67.0429 35.757 64.7325 29.7044C63.6996 27.007 62.6376 24.2166 61.5595 21.4841C60.7797 19.5088 60.005 17.5314 59.2355 15.5518C57.9334 12.2213 56.5886 8.77695 55.233 5.4003C53.7107 1.6081 51.0426 0.026423 47.0813 0.564735C46.9863 0.577506 46.8952 0.610704 46.8143 0.662389C46.7334 0.714077 46.6646 0.78298 46.6127 0.864045C46.3764 1.23288 46.1188 1.59989 45.8586 1.96807C45.2111 2.83093 44.651 3.75666 44.1866 4.73161L43.4261 6.45899C41.9124 9.72877 40.5743 13.0777 39.4178 16.4919C36.1841 26.6425 33.4314 35.816 31.0028 44.5348C30.0745 47.866 29.1492 51.1992 28.2268 54.5347C21.3476 79.3871 14.2341 105.087 4.86689 129.612C3.77458 132.474 2.95858 135.478 2.16969 138.384L1.94439 139.213C1.1959 141.699 1.22068 144.357 2.01541 146.829C2.22038 147.475 2.56299 148.068 3.01937 148.566C3.47574 149.066 4.03488 149.458 4.65772 149.717C5.12812 149.901 5.6286 149.996 6.1335 149.996C6.88447 149.99 7.6218 149.794 8.27744 149.426C9.67626 148.606 11.0045 147.67 12.2483 146.627L12.6718 146.291C16.9984 142.877 21.3214 139.459 25.6407 136.035C31.5498 131.36 37.4628 126.688 43.3796 122.02C44.6379 121.029 45.9619 120.11 47.3673 119.137C47.9354 118.744 48.5158 118.341 49.1104 117.922C49.9444 118.405 50.7682 118.874 51.5829 119.336C53.6145 120.49 55.5344 121.58 57.3975 122.792C62.6912 126.234 68.2786 129.966 74.4767 134.203C81.8497 139.241 90.011 142.668 97.0819 145.485C97.8444 145.757 98.6313 145.953 99.4318 146.07C99.9412 146.164 100.529 146.273 101.225 146.425C101.317 146.444 101.412 146.444 101.504 146.424C101.596 146.404 101.683 146.364 101.759 146.309C101.835 146.253 101.898 146.181 101.944 146.098C101.99 146.015 102.018 145.924 102.026 145.829C102.081 145.168 102.161 144.601 102.23 144.101C102.401 143.29 102.428 142.454 102.308 141.634C101.877 139.656 101.471 137.676 101.064 135.696ZM87.0039 127.29C86.3041 126.809 85.7328 126.414 85.1912 126.007C83.5676 124.788 81.9588 123.549 80.3494 122.309C76.9208 119.668 73.3773 116.938 69.7408 114.452C65.3341 111.452 60.7411 108.738 55.9902 106.327C50.6216 103.6 45.8283 104.516 40.9039 109.225C35.1538 114.725 28.9518 119.956 22.9538 125.014C20.5919 127.006 18.2366 129.005 15.8881 131.011C15.7078 131.097 15.5163 131.157 15.3193 131.188L15.298 131.193C15.2864 131.128 15.2748 131.07 15.2638 131.012C15.2203 130.83 15.1945 130.645 15.187 130.459C25.6052 102.425 33.0467 74.182 40.9245 44.2821C43.3422 35.1061 45.8373 25.636 48.4132 16.2392C49.9237 19.8664 51.1024 23.6247 51.9347 27.4671C52.5274 29.8697 53.0864 32.1427 53.8488 34.409C54.5641 36.5332 55.2756 38.6584 55.9831 40.7848C57.3575 44.9056 58.7791 49.1672 60.2238 53.3438C61.5047 57.0451 62.8468 60.7933 64.145 64.4173C65.0708 67.0001 65.9913 69.5839 66.9067 72.1696C67.8596 74.8761 68.8034 77.5852 69.7382 80.2982C70.9583 83.8196 72.2198 87.4592 73.4922 91.0307C75.8007 97.5086 78.1035 103.823 80.3352 109.807C81.9214 114.055 83.5573 118.314 85.2893 122.817C85.8464 124.275 86.4178 125.762 87.0039 127.29Z" fill="black"/>
</g>
<defs>
<clipPath id="clip0">
<rect width="102" height="150" fill="white" transform="translate(0.777344)"/>
</clipPath>
</defs>
</svg>

<svg xmlns="http://www.w3.org/2000/svg" width="103" height="150" fill="none" viewBox="0 0 103 150"><g clip-path="url(#a)"><path fill="#000" d="M101.064 135.696c-1.14-5.548-2.32-11.285-3.96-16.798-6.466-21.748-14.262-46.954-24.987-70.89-2.686-5.993-5.074-12.251-7.385-18.304-1.032-2.697-2.094-5.487-3.172-8.22a1213 1213 0 0 1-2.325-5.932c-1.302-3.33-2.646-6.775-4.002-10.152-1.522-3.792-4.19-5.374-8.152-4.835a.66.66 0 0 0-.468.299c-.237.369-.494.736-.754 1.104a16.2 16.2 0 0 0-1.672 2.764l-.76 1.727a101 101 0 0 0-4.01 10.033c-3.233 10.15-5.986 19.324-8.414 28.043q-1.392 4.996-2.776 10c-6.88 24.852-13.993 50.552-23.36 75.077-1.092 2.862-1.908 5.866-2.697 8.772l-.226.829a12.8 12.8 0 0 0 .071 7.616 4.65 4.65 0 0 0 2.643 2.888c.47.184.97.279 1.475.279a4.45 4.45 0 0 0 2.144-.57 29 29 0 0 0 3.971-2.799l.424-.336q6.49-5.12 12.969-10.256 8.863-7.013 17.739-14.015c1.258-.991 2.582-1.91 3.987-2.883q.852-.588 1.743-1.215 1.25.723 2.473 1.414c2.032 1.154 3.951 2.244 5.815 3.456a885 885 0 0 1 17.079 11.411c7.373 5.038 15.534 8.465 22.605 11.282.762.272 1.55.468 2.35.585.51.094 1.097.203 1.793.355a.67.67 0 0 0 .534-.116.66.66 0 0 0 .267-.48c.055-.661.135-1.228.204-1.728a7 7 0 0 0 .078-2.467c-.431-1.978-.837-3.958-1.244-5.938m-14.06-8.406a53 53 0 0 1-1.813-1.283 489 489 0 0 1-4.842-3.698c-3.428-2.641-6.972-5.371-10.608-7.857-4.407-3-9-5.714-13.75-8.125-5.37-2.727-10.163-1.811-15.087 2.898-5.75 5.5-11.952 10.731-17.95 15.789a1480 1480 0 0 0-7.066 5.997q-.272.13-.569.177l-.021.005-.034-.181a3 3 0 0 1-.077-.553c10.418-28.034 17.86-56.277 25.738-86.177 2.417-9.176 4.912-18.646 7.488-28.043a65 65 0 0 1 3.522 11.228c.592 2.403 1.151 4.676 1.914 6.942q1.073 3.187 2.134 6.376c1.375 4.12 2.796 8.382 4.24 12.559 1.282 3.701 2.624 7.45 3.922 11.073q1.389 3.874 2.762 7.753a1284 1284 0 0 1 2.831 8.128c1.22 3.522 2.482 7.161 3.754 10.733a1373 1373 0 0 0 6.843 18.776c1.586 4.248 3.222 8.507 4.954 13.01.557 1.458 1.129 2.945 1.715 4.473"/></g><defs><clipPath id="a"><path fill="#fff" d="M.777 0h102v150h-102z"/></clipPath></defs></svg>
